X: 1
T: Habervogl
R: zwiefacher
Z: John Chambers <jc@trillian.mit.edu> http://trillian.mit.edu/~jc/music/
M: 23/4
L: 1/8
K: G
|: "D7"D2 \
| "G"[B2G2] [BG][BG] [BG][BG] | [B2G2] [A2F2] [G2D2] \
| "C"[G2E2][E2C2] | [E4C4] | [G2E2][E2C2] | [E4C4] \
| "D7"[A2F2] [AF][AF] [AF][AF] | [A2F2] [G2E2] [E2C2] \
| "G"[E2C2][D2B,2] | [D4B,4] |
| "G"[E2C2][D2B,2] | [D4B,4] \
||"G"G2 GG GG | G2 F2 E2 \
| "D7"[F2D2][FD][GE] | [A4F4] | [F2D2][FD][GE] | [A4F4] \
| "D7"[d2F2] [dF][dF] [dF][dF] | [d2F2] [c2F2] [F2C2] | "G"[G2B,2] z2 :|
|: D2 \
| "G"E2 D^C DG | "D7"[F2D2][c2F2] | [F2D2][c2F2] \
|    E2 D^C DF |  "G"[G2D2][B2G2] | [G2D2][B2G2] \
| "G"E2 D^C DG | "D7"[F2D2][c2F2] | [F2D2][c2F2] \
| "D7"D2 [FD][AF] [cA][FD] | "G"[G2B,2] z2 :|
